apps/scalable/dconf-editor.svg

<svg xmlns="http://www.w3.org/2000/svg" style="isolation:isolate" width="256" height="256"><defs><filter id="a" width="270.648" height="254.338" x="-7.32" y="2.95" filterUnits="userSpaceOnUse"><feGaussianBlur xmlns="http://www.w3.org/2000/svg" in="SourceGraphic" stdDeviation="4.294"/><feOffset xmlns="http://www.w3.org/2000/svg" dy="4" result="pf_100_offsetBlur"/><feFlood xmlns="http://www.w3.org/2000/svg" flood-opacity=".4"/><feComposite xmlns="http://www.w3.org/2000/svg" in2="pf_100_offsetBlur" operator="in" result="pf_100_dropShadow"/><feBlend xmlns="http://www.w3.org/2000/svg" in="SourceGraphic" in2="pf_100_dropShadow"/></filter></defs><path fill="#ECECEC" d="M165.685 11.947c74.055 0 84.639 10.557 84.639 84.544v59.251c0 73.986-10.584 84.543-84.639 84.543h-75.37c-74.055 0-84.639-10.557-84.639-84.543V96.491c0-73.987 10.584-84.544 84.639-84.544h75.37z" filter="url(#a)"/><path fill="#FFF" d="M226.499 22.25L29.956 231.898c12.579 6.593 31.794 8.25 60.948 8.25h74.647c73.345 0 83.828-10.456 83.828-83.733V97.733c0-44.15-3.813-65.489-22.88-75.483z" opacity=".2"/><g opacity=".4"><linearGradient id="b" x1=".517" x2=".517" y2="1"><stop offset="0%" stop-color="#fff"/><stop offset="12.5%" stop-opacity=".098" stop-color="#fff"/><stop offset="92.5%" stop-opacity=".098"/><stop offset="100%" stop-opacity=".498"/></linearGradient><path fill="none" stroke="url(#b)" stroke-linecap="round" stroke-linejoin="round" stroke-width="4.077" d="M165.685 11.947c74.055 0 84.639 10.557 84.639 84.544v59.251c0 73.986-10.584 84.543-84.639 84.543h-75.37c-74.055 0-84.639-10.557-84.639-84.543V96.491c0-73.987 10.584-84.544 84.639-84.544h75.37z" vector-effect="non-scaling-stroke"/></g><defs><filter id="c" width="158.905" height="158.905" x="48.55" y="48.55" filterUnits="userSpaceOnUse"><feGaussianBlur xmlns="http://www.w3.org/2000/svg" stdDeviation="1.288"/></filter></defs><path d="M128 51.547c-42.184 0-76.453 34.269-76.453 76.453 0 42.184 34.269 76.453 76.453 76.453 42.184 0 76.453-34.269 76.453-76.453 0-11.919-2.738-23.208-7.616-33.269l-68.271 79.065c-16.325-19.186-35.147-42.584-51.992-63.632l.526-2.117 24.336-18.516 26.717 34.124 48.459-54.641C163.394 58.105 146.454 51.548 128 51.548v-.001z" opacity=".4" filter="url(#c)"/><path fill="#FA9381" d="M128 51.547c-42.184 0-76.453 34.269-76.453 76.453 0 42.184 34.269 76.453 76.453 76.453 42.184 0 76.453-34.269 76.453-76.453 0-11.919-2.738-23.208-7.616-33.269l-68.271 79.065c-16.325-19.186-35.147-42.584-51.992-63.632l.526-2.117 24.336-18.516 26.717 34.124 48.459-54.641C163.394 58.105 146.454 51.547 128 51.547z"/></svg>

<svg xmlns="http://www.w3.org/2000/svg" style="isolation:isolate" width="256" height="256" viewBox="0 0 256 256">
 <defs>
  <filter id="L2VJLEuPfJuSsn98CWZUSYyfl8rs6IB4" width="270.648" height="254.338" x="-7.32" y="2.95" filterUnits="userSpaceOnUse">
   <feGaussianBlur xmlns="http://www.w3.org/2000/svg" in="SourceGraphic" stdDeviation="4.294"/>
   <feOffset xmlns="http://www.w3.org/2000/svg" dx="0" dy="4" result="pf_100_offsetBlur"/>
   <feFlood xmlns="http://www.w3.org/2000/svg" flood-opacity=".4"/>
   <feComposite xmlns="http://www.w3.org/2000/svg" in2="pf_100_offsetBlur" operator="in" result="pf_100_dropShadow"/>
   <feBlend xmlns="http://www.w3.org/2000/svg" in="SourceGraphic" in2="pf_100_dropShadow" mode="normal"/>
  </filter>
 </defs>
 <g filter="url(#L2VJLEuPfJuSsn98CWZUSYyfl8rs6IB4)">
  <path fill="#ECECEC" d="M 165.685 11.947 C 239.74 11.947 250.324 22.504 250.324 96.491 L 250.324 155.742 C 250.324 229.728 239.74 240.285 165.685 240.285 L 90.315 240.285 C 16.26 240.285 5.676 229.728 5.676 155.742 L 5.676 96.491 C 5.676 22.504 16.26 11.947 90.315 11.947 L 165.685 11.947 Z"/>
 </g>
 <g opacity=".2">
  <path fill="#FFFFFF" d="M 226.499 22.25 L 29.956 231.898 C 42.535 238.491 61.75 240.148 90.904 240.148 L 165.551 240.148 C 238.896 240.148 249.379 229.692 249.379 156.415 L 249.379 97.733 C 249.379 53.583 245.566 32.244 226.499 22.25 Z"/>
 </g>
 <g opacity=".4">
  <linearGradient id="_lgradient_204" x1=".517" x2=".517" y1="0" y2="1">
   <stop offset="0%" style="stop-color:rgb(255,255,255)"/>
   <stop offset="12.5%" stop-opacity=".098" style="stop-color:rgb(255,255,255)"/>
   <stop offset="92.5%" stop-opacity=".098" style="stop-color:rgb(0,0,0)"/>
   <stop offset="100%" stop-opacity=".498" style="stop-color:rgb(0,0,0)"/>
  </linearGradient>
  <path fill="none" stroke="url(#_lgradient_204)" stroke-linecap="round" stroke-linejoin="round" stroke-width="4.077" d="M 165.685 11.947 C 239.74 11.947 250.324 22.504 250.324 96.491 L 250.324 155.742 C 250.324 229.728 239.74 240.285 165.685 240.285 L 90.315 240.285 C 16.26 240.285 5.676 229.728 5.676 155.742 L 5.676 96.491 C 5.676 22.504 16.26 11.947 90.315 11.947 L 165.685 11.947 Z" vector-effect="non-scaling-stroke"/>
 </g>
 <g>
  <defs>
   <filter id="zQQpP6hwxuessKVEHwkPBD91y7vwDQDL" width="158.905" height="158.905" x="48.55" y="48.55" filterUnits="userSpaceOnUse">
    <feGaussianBlur xmlns="http://www.w3.org/2000/svg" stdDeviation="1.288"/>
   </filter>
  </defs>
  <g opacity=".4" filter="url(#zQQpP6hwxuessKVEHwkPBD91y7vwDQDL)">
   <path d="M 128 51.547 C 85.816 51.547 51.547 85.816 51.547 128 C 51.547 170.184 85.816 204.453 128 204.453 C 170.184 204.453 204.453 170.184 204.453 128 C 204.453 116.081 201.715 104.792 196.837 94.731 L 128.566 173.796 C 112.241 154.61 93.419 131.212 76.574 110.164 L 77.1 108.047 L 101.436 89.531 L 128.153 123.655 L 176.612 69.014 C 163.394 58.105 146.454 51.548 128 51.548 L 128 51.547 Z"/>
  </g>
  <path fill="#FA9381" d="M 128 51.547 C 85.816 51.547 51.547 85.816 51.547 128 C 51.547 170.184 85.816 204.453 128 204.453 C 170.184 204.453 204.453 170.184 204.453 128 C 204.453 116.081 201.715 104.792 196.837 94.731 L 128.566 173.796 C 112.241 154.61 93.419 131.212 76.574 110.164 L 77.1 108.047 L 101.436 89.531 L 128.153 123.655 L 176.612 69.014 C 163.394 58.105 146.454 51.547 128 51.547 L 128 51.547 Z"/>
 </g>
</svg>
